svg/u1f9ca.svg

<svg viewBox="0 0 128 128" xmlns="http://www.w3.org/2000/svg">
  <path d="M63.03,5.38L16.79,20.85l-6.58,3.79L9.38,49.48l5.95,43.37l30.91,16.7l19.7,7.1 l14.53-5.95l34.17-15.67c0,0,3.34-0.27,1.78-5.38s0.42-53.34,0.42-53.34l0.18-11.58c0,0-0.02-2.73-9.07-4.71S63.03,5.38,63.03,5.38z " opacity="0.5" fill="#FFFFFF"/>
  <path d="M9.31,25.82l54.45,24.9l52.26-23.8c0,0,0.27,63.47-0.55,63.75 c-0.41,0.14-51.16-19.7-51.16-19.7l-49.79,19.7L9.59,35.94L9.31,25.82z" opacity="0.7" fill="#7EC8EE"/>
  <polygon points="65.95,116.65 40.5,107.35 15.33,92.85 14.51,90.66 62.39,69.04 115.47,90.66 114.65,95.04 93.04,105.43 " opacity="0.7" fill="#63ABDE"/>
  <polygon points="62.94,5.02 15.33,21.16 9.31,25.82 17.52,29.65 61.57,48.8 65.13,48.25 116.02,23.9 " opacity="0.7" fill="#B0E4FF"/>
  <path d="M116.84,89.59c-1.5-1.5-31.75-13.7-37.53-16.24c-5.78-2.54-8.33-4.16-9.37-6.71 s-3.12-45.8-3.12-48.57S66.49,7.22,63.36,7.21c-2.57-0.01-3.12,7.34-3.12,11.19c0,3.85-1.03,44.81-1.98,48.35 c-1.16,4.36-12.04,7.97-21.39,12.37c-9.36,4.4-21.84,7.83-22.36,11.53c-0.51,3.7,2.06,4.62,6.83,7.92 c1.95,1.35,8.17,4.83,15.41,8.42c10.49,5.2,23.16,10.42,28.38,10.51c7.35,0.13,18.19-5.83,29.67-11.2 c11.27-5.27,21.34-9.5,22.15-11.46C118.2,91.83,118.35,91.09,116.84,89.59z M93.88,102.26c-7.5,3.42-24.98,11.1-29.03,11.45 c-4.05,0.35-18.52-6.52-24.98-9.6c-7.29-3.47-21.39-10.76-20.59-12.61c0.81-1.85,9.6-4.86,21.74-9.83 c12.14-4.97,23.01-9.14,23.01-9.14s7.52,2.68,20.7,8.33c12.95,5.55,28.1,12.14,28.1,12.14S103.02,98.09,93.88,102.26z" fill="#37B4E2"/>
  <path d="M63.56,3.92c-4.11-0.57-12.68,3.86-24.4,7.86c-12.51,4.27-23.06,7.12-26.74,8.96 c-3.03,1.52-4.55,4-4.69,7.31C7.6,31.35,7.32,40.72,9.8,64.7c0.76,7.3,3.53,25.86,3.89,27.17c1.85,6.73,4.93,1.91,4.24-3.33 c-0.49-3.7-2.07-12.13-3.45-26.33s-2.76-32.11-1.52-35.15s9.19-5.38,14.75-7.03c17.23-5.1,32.53-11.85,35.84-11.85 s25.77,8.13,29.5,9.51c3.72,1.38,19.71,5.93,20.54,8.13s0.14,58.58,0.28,61.61c0.14,3.03-0.65,6.83,1.59,7.24 c2.25,0.4,2.82-3.38,2.82-6s-0.14-27.7,0.14-39.14c0.28-11.44,2.07-22.6-1.1-26.6s-12.96-6.06-29.22-11.72 C77.96,7.7,67.55,4.47,63.56,3.92z" fill="#58C4FD"/>
  <radialGradient id="SVGID_1_" cx="61.8452" cy="58.6697" gradientTransform="matrix(-0.7728 0.6347 -0.8463 -1.0304 159.2884 79.8721)" gradientUnits="userSpaceOnUse" r="46.1695">
    <stop offset="0.0997" stop-color="#FFFFFF" stop-opacity="0.9"/>
    <stop offset="1" stop-color="#FCFCFC" stop-opacity="0"/>
  </radialGradient>
  <polygon points="15.32,29.69 63.28,51.61 65.76,112.81 60.4,114.04 23.86,97.78 15.33,92.85 9.59,35.94 10.9,27.63 " fill="url(#SVGID_1_)"/>
  <radialGradient id="SVGID_2_" cx="69.4654" cy="53.8452" gradientTransform="matrix(0.8254 0.5645 -0.6684 0.9774 48.1168 -37.9956)" gradientUnits="userSpaceOnUse" r="54.6344">
    <stop offset="0.1516" stop-color="#32AFE0" stop-opacity="0.9"/>
    <stop offset="0.963" stop-color="#32AFE0" stop-opacity="0"/>
  </radialGradient>
  <polygon points="64.52,51.89 65.49,115.43 108.9,97.92 115.38,93.37 115.01,87.85 117.03,24.73 110.42,26.39 " fill="url(#SVGID_2_)"/>
  <radialGradient id="SVGID_3_" cx="63.6464" cy="49.4809" gradientTransform="matrix(-1.997193e-03 -1 2.0491 -4.092394e-03 -37.6163 113.3297)" gradientUnits="userSpaceOnUse" r="47.1483">
    <stop offset="0.2558" stop-color="#67CCF9" stop-opacity="0.9"/>
    <stop offset="0.416" stop-color="#6CCDF9" stop-opacity="0.6743"/>
    <stop offset="0.6164" stop-color="#7CD1F9" stop-opacity="0.3921"/>
    <stop offset="0.8373" stop-color="#95D8F9" stop-opacity="0.0808"/>
    <stop offset="0.8947" stop-color="#9DDAF9" stop-opacity="0"/>
  </radialGradient>
  <polygon points="15.87,31.2 41.78,43.05 63.49,51.8 114.56,26.1 115.74,24.99 62.67,6.11 13.8,21.96 8.84,25.55 8.98,28.72 " fill="url(#SVGID_3_)"/>
  <path d="M7.81,102.12c0.91,2.5,3.8,5.52,9.68,6.45c4.86,0.77,7.96-0.11,10.3-1.49 c2.12-1.25,2.74-4.09,2.65-5.39c-0.12-1.63-1.83-4.04-3.8-5.05C24.66,95.62,7.18,100.4,7.81,102.12z" fill="#37B5E1"/>
  <path d="M12,93.94c-3.24,1.88-6.55,6.11-3.61,9.05s13.82,3.71,18-0.1c4.19-3.8-0.77-7.89-4.14-9.39 S15.32,92.01,12,93.94z" fill="#B0E3FD"/>
  <path d="M10.94,97.31c-1.22,0.08-3.09,2.86-0.14,4.91c3.66,2.55,8.76,1.01,8.42-0.53s-3.9-1.44-5.34-2.26 C12.43,98.61,12.33,97.21,10.94,97.31z" fill="#FDFEFE"/>
  <path d="M28.71,118.38c-1.01,2.27,0.05,4.89,4.66,6.03c7.22,1.78,11.83-0.8,13.37-2.29 c1.54-1.49,1.73-3.85,0.91-4.62C46.83,116.74,28.71,118.38,28.71,118.38z" fill="#37B5E1"/>
  <path d="M37.46,113.82c-5.82,0.3-8.46,3.15-8.7,4.5c-0.24,1.35,2.58,3.95,8.99,3.64 c8.71-0.42,10.11-4.19,10.11-4.19S45.79,113.39,37.46,113.82z" fill="#B0E4FF"/>
  <path d="M35.78,116.32c-1.22-0.79-3.03-0.29-4.14,0.48c-0.89,0.62-1.34,2.07-0.72,2.84 c1.01,1.25,3.03,0.87,4.24,0.1C36.35,118.97,37.12,117.19,35.78,116.32z" fill="#FFFFFF"/>
  <path d="M26.41,21.75c-1.74-2.56-8.72,0.22-11.4,1.69s-4.25,3.33-3.98,5.4s3.76,3.11,7.58,4.8 c3.82,1.69,32.87,14.9,35.06,16.08c3.12,1.69,6.47,3.86,7.47,10.41c0.65,4.31,2.44,45.69,2.51,47.11c0.16,3.36-0.13,8.23,1.9,8.15 c1.78-0.07,1.42-4.5,1.37-8.21c-0.05-3.71,0.31-44.05,0.32-46.78c0.02-3.41,1.12-7.25,3.41-9.27s6.64-4.58,11.8-7.21 c6.18-3.14,19.97-9.92,25.2-12.26c5.23-2.34,8.23-3.05,8.23-5.62s-11.89-6.11-13.3-6.22c-1.42-0.11-2.94,0.38-2.62,2.13 c0.33,1.74,1.66,4.71-1.01,7.05s-8.45,5.52-11.75,7.18c-5.69,2.85-19.41,10.09-24.1,9.76c-4.69-0.33-7.63-1.15-14.67-4.09 c-7.03-2.94-15.49-7.2-19.63-9.43c-2.94-1.59-4.96-3.93-4.8-6.38C24.18,23.6,27.92,23.96,26.41,21.75z" fill="#FFFFFF"/>
  <path d="M43.75,15.86c0.67,1.73,6.71-0.05,9.6-0.93c2.89-0.87,7.85-2.45,10.8-2.62 c2.94-0.16,12.81,2.84,15.32,3.33c2.51,0.49,4.69,0.6,5.23-0.27s-3-2.78-7.96-4.47S66,6.54,63.54,6.86 C61,7.2,55.55,9.69,51.22,11.22C48.6,12.15,42.93,13.73,43.75,15.86z" fill="#FFFFFF"/>
</svg>

<svg viewBox="0 0 128 128" xmlns="http://www.w3.org/2000/svg">
  <defs>
    <radialGradient id="SVGID_1_" cx="-10.55028" cy="-63.439686" gradientTransform="matrix(-0.7728 0.6347 -0.8463 -1.0304 0 0)" gradientUnits="userSpaceOnUse" r="46.1695">
      <stop offset="0.0997" stop-color="#FFFFFF" stop-opacity="0.9"/>
      <stop offset="1" stop-color="#FCFCFC" stop-opacity="0"/>
    </radialGradient>
    <radialGradient id="SVGID_2_" cx="87.735709" cy="4.418978" gradientTransform="matrix(0.8254 0.5645 -0.6684 0.9774 0 0)" gradientUnits="userSpaceOnUse" r="54.6344">
      <stop offset="0.1516" stop-color="#32AFE0" stop-opacity="0.9"/>
      <stop offset="0.963" stop-color="#32AFE0" stop-opacity="0"/>
    </radialGradient>
    <radialGradient id="SVGID_3_" cx="-49.607722" cy="31.013041" gradientTransform="matrix(-0.001997 -1 2.0491 -0.004092 0 0)" gradientUnits="userSpaceOnUse" r="47.1483">
      <stop offset="0.2558" stop-color="#67CCF9" stop-opacity="0.9"/>
      <stop offset="0.416" stop-color="#6CCDF9" stop-opacity="0.6743"/>
      <stop offset="0.6164" stop-color="#7CD1F9" stop-opacity="0.3921"/>
      <stop offset="0.8373" stop-color="#95D8F9" stop-opacity="0.0808"/>
      <stop offset="0.8947" stop-color="#9DDAF9" stop-opacity="0"/>
    </radialGradient>
  </defs>
  <path d="M63.03,5.38 L16.79,20.85 L10.21,24.64 L9.38,49.48 L15.33,92.85 L46.24,109.55 L65.94,116.65 L80.47,110.7 L114.64,95.03 C114.64,95.03 117.98,94.76 116.42,89.65 C114.86,84.54 116.84,36.31 116.84,36.31 L117.02,24.73 C117.02,24.73 117,22 107.95,20.02 C98.9,18.04 63.03,5.38 63.03,5.38 Z" fill="#FFFFFF" opacity="0.5"/>
  <path d="M9.31,25.82 L63.76,50.72 L116.02,26.92 C116.02,26.92 116.29,90.39 115.47,90.67 C115.06,90.81 64.31,70.97 64.31,70.97 L14.52,90.67 L9.59,35.94 L9.31,25.82 Z" fill="#7EC8EE" opacity="0.7"/>
  <path d="M65.95,116.65 L40.5,107.35 L15.33,92.85 L14.51,90.66 L62.39,69.04 L115.47,90.66 L114.65,95.04 L93.04,105.43 Z" fill="#63ABDE" opacity="0.7"/>
  <path d="M62.94,5.02 L15.33,21.16 L9.31,25.82 L17.52,29.65 L61.57,48.8 L65.13,48.25 L116.02,23.9 Z" fill="#B0E4FF" opacity="0.7"/>
  <path d="M116.84,89.59 C115.34,88.09 85.09,75.89 79.31,73.35 C73.53,70.81 70.98,69.19 69.94,66.64 C68.9,64.09 66.82,20.84 66.82,18.07 C66.82,15.3 66.49,7.22 63.36,7.21 C60.79,7.2 60.24,14.55 60.24,18.4 C60.24,22.25 59.21,63.21 58.26,66.75 C57.1,71.11 46.22,74.72 36.87,79.12 C27.51,83.52 15.03,86.95 14.51,90.65 C14,94.35 16.57,95.27 21.34,98.57 C23.29,99.92 29.51,103.4 36.75,106.99 C47.24,112.19 59.91,117.41 65.13,117.5 C72.48,117.63 83.32,111.67 94.8,106.3 C106.07,101.03 116.14,96.8 116.95,94.84 C118.2,91.83 118.35,91.09 116.84,89.59 Z M93.88,102.26 C86.38,105.68 68.9,113.36 64.85,113.71 C60.8,114.06 46.33,107.19 39.87,104.11 C32.58,100.64 18.48,93.35 19.28,91.5 C20.09,89.65 28.88,86.64 41.02,81.67 C53.16,76.7 64.03,72.53 64.03,72.53 C64.03,72.53 71.55,75.21 84.73,80.86 C97.68,86.41 112.83,93 112.83,93 C112.83,93 103.02,98.09 93.88,102.26 Z" fill="#37B4E2"/>
  <path d="M63.56,3.92 C59.45,3.35 50.88,7.78 39.16,11.78 C26.65,16.05 16.1,18.9 12.42,20.74 C9.39,22.26 7.87,24.74 7.73,28.05 C7.6,31.35 7.32,40.72 9.8,64.7 C10.56,72 13.33,90.56 13.69,91.87 C15.54,98.6 18.62,93.78 17.93,88.54 C17.44,84.84 15.86,76.41 14.48,62.21 C13.1,48.01 11.72,30.1 12.96,27.06 C14.2,24.02 22.15,21.68 27.71,20.03 C44.94,14.93 60.24,8.18 63.55,8.18 C66.86,8.18 89.32,16.31 93.05,17.69 C96.77,19.07 112.76,23.62 113.59,25.82 C114.42,28.02 113.73,84.4 113.87,87.43 C114.01,90.46 113.22,94.26 115.46,94.67 C117.71,95.07 118.28,91.29 118.28,88.67 C118.28,86.05 118.14,60.97 118.42,49.53 C118.7,38.09 120.49,26.93 117.32,22.93 C114.15,18.93 104.36,16.87 88.1,11.21 C77.96,7.7 67.55,4.47 63.56,3.92 Z" fill="#58C4FD"/>
  <path d="M15.32,29.69 L63.28,51.61 L65.76,112.81 L60.4,114.04 L23.86,97.78 L15.33,92.85 L9.59,35.94 L10.9,27.63 Z" fill="url(#SVGID_1_)"/>
  <path d="M64.52,51.89 L65.49,115.43 L108.9,97.92 L115.38,93.37 L115.01,87.85 L117.03,24.73 L110.42,26.39 Z" fill="url(#SVGID_2_)"/>
  <path d="M15.87,31.2 L41.78,43.05 L63.49,51.8 L114.56,26.1 L115.74,24.99 L62.67,6.11 L13.8,21.96 L8.84,25.55 L8.98,28.72 Z" fill="url(#SVGID_3_)"/>
  <path d="M7.81,102.12 C8.72,104.62 11.61,107.64 17.49,108.57 C22.35,109.34 25.45,108.46 27.79,107.08 C29.91,105.83 30.53,102.99 30.44,101.69 C30.32,100.06 28.61,97.65 26.64,96.64 C24.66,95.62 7.18,100.4 7.81,102.12 Z" fill="#37B5E1"/>
  <path d="M12,93.94 C8.76,95.82 5.45,100.05 8.39,102.99 C11.33,105.93 22.21,106.7 26.39,102.89 C30.58,99.09 25.62,95 22.25,93.5 C18.88,92 15.32,92.01 12,93.94 Z" fill="#B0E3FD"/>
  <path d="M10.94,97.31 C9.72,97.39 7.85,100.17 10.8,102.22 C14.46,104.77 19.56,103.23 19.22,101.69 C18.88,100.15 15.32,100.25 13.88,99.43 C12.43,98.61 12.33,97.21 10.94,97.31 Z" fill="#FDFEFE"/>
  <path d="M28.71,118.38 C27.7,120.65 28.76,123.27 33.37,124.41 C40.59,126.19 45.2,123.61 46.74,122.12 C48.28,120.63 48.47,118.27 47.65,117.5 C46.83,116.74 28.71,118.38 28.71,118.38 Z" fill="#37B5E1"/>
  <path d="M37.46,113.82 C31.64,114.12 29,116.97 28.76,118.32 C28.52,119.67 31.34,122.27 37.75,121.96 C46.46,121.54 47.86,117.77 47.86,117.77 C47.86,117.77 45.79,113.39 37.46,113.82 Z" fill="#B0E4FF"/>
  <path d="M35.78,116.32 C34.56,115.53 32.75,116.03 31.64,116.8 C30.75,117.42 30.3,118.87 30.92,119.64 C31.93,120.89 33.95,120.51 35.16,119.74 C36.35,118.97 37.12,117.19 35.78,116.32 Z" fill="#FFFFFF"/>
  <path d="M26.41,21.75 C24.67,19.19 17.69,21.97 15.01,23.44 C12.33,24.91 10.76,26.77 11.03,28.84 C11.3,30.91 14.79,31.95 18.61,33.64 C22.43,35.33 51.48,48.54 53.67,49.72 C56.79,51.41 60.14,53.58 61.14,60.13 C61.79,64.44 63.58,105.82 63.65,107.24 C63.81,110.6 63.52,115.47 65.55,115.39 C67.33,115.32 66.97,110.89 66.92,107.18 C66.87,103.47 67.23,63.13 67.24,60.4 C67.26,56.99 68.36,53.15 70.65,51.13 C72.94,49.11 77.29,46.55 82.45,43.92 C88.63,40.78 102.42,34 107.65,31.66 C112.88,29.32 115.88,28.61 115.88,26.04 C115.88,23.47 103.99,19.93 102.58,19.82 C101.16,19.71 99.64,20.2 99.96,21.95 C100.29,23.69 101.62,26.66 98.95,29 C96.28,31.34 90.5,34.52 87.2,36.18 C81.51,39.03 67.79,46.27 63.1,45.94 C58.41,45.61 55.47,44.79 48.43,41.85 C41.4,38.91 32.94,34.65 28.8,32.42 C25.86,30.83 23.84,28.49 24,26.04 C24.18,23.6 27.92,23.96 26.41,21.75 Z" fill="#FFFFFF"/>
  <path d="M43.75,15.86 C44.42,17.59 50.46,15.81 53.35,14.93 C56.24,14.06 61.2,12.48 64.15,12.31 C67.09,12.15 76.96,15.15 79.47,15.64 C81.98,16.13 84.16,16.24 84.7,15.37 C85.24,14.5 81.7,12.59 76.74,10.9 C71.78,9.21 66,6.54 63.54,6.86 C61,7.2 55.55,9.69 51.22,11.22 C48.6,12.15 42.93,13.73 43.75,15.86 Z" fill="#FFFFFF"/>
</svg>
